!!!!SEGMENT: pl-sa--548-a-ix-28--008_anonim--mazur.krn
!!!cenid: 18xx:431
!!!COM: Anonim
!!!COM-rism: pe30004985
!!!CDT:
!!!CNT:
!!!OTL: Mazur
!!!PDT:
!!!AGN: Secular; Mazurka
!!!SMS-siglum: PL-SA
!!!SMS-shelfmark: 548/A IX 28
!!!NIFC-rismID: 1001068959
!!!URL-scan: http://bc.bdsandomierz.pl/dlibra/publication/1440/edition/1408/content
!!!ONB-nifc: Str. 12 (s. 4) – str. 13 (s. 3)
!!!SMS-variant:
!!!SMS-altvar:
**kern	**kern
*part2	*part1
*staff2	*staff1
*clefF4	*clefG2
*k[f#c#]	*k[f#c#]
*D:	*D:
*M3/8	*M3/8
=1	=1
*all\right	*all\right
!LO:TX:a:t=P:problem:krzyżyki przed kluczem	!LO:TX:a:t=Mazur
8DL 8DD/	16.aa\LL
.	32gg#X\K
8F# 8FF#/	16.aa\
.	32bb\K
8AJ 8AA/	16.ee\
.	32ggn\JJk
=2	=2
8dL 8A 8F# 8D\	16ff#\LL
.	16cc#\JJ
8f# 8d 8A\	8dd\L
8f#J 8d 8A\	16ff#\L
.	16aa\JJ
=3	=3
8AA/L	8a\
8A 8E 8C#/	16.cc#\LL
.	32a\K
8AJ 8E 8C#/	16.cc#\
.	32ee\JJk
!LO:LB:g=original	!LO:LB:g=original
=4	=4
.	8qee/
8D\L	16.dd\LL
.	32cc#\K
8d 8A 8F#\	16.dd\
.	32gg\JJk
8dJ 8A 8F#\	16bb\LL
.	16aa\JJ
=5	=5
.	8qbb/
8D\L	16.aa\LL
.	32gg#X\JJk
8F#\	16.aa\LL
.	32bb\JJk
8A\J	16.ee\LL
.	32ggn\JJk
=6	=6
8dL 8A 8F#\	16ff#\LL
.	16cc#\JJ
8d 8A 8F#\	8ddT\
8dJ 8A 8F#\	16ff#\LL
.	16aa\JJ
=7	=7
8AA/L	16a/LL
!	!LO:TUP:b:problem:klamra łukowa
.	48b/L
.	48a/
.	48g#X/JJJ
8A 8G 8E/	16a/LL
.	16b/
8AJ 8G 8E/	16cc#/
.	16a/JJ
=8	=8
8D/L	16cc#\LL
.	16dd\JJ
8AJ 8F#/	4d/
8r	.
!LO:PB:g=original	!LO:PB:g=original
=9||	=9||
8AA/L	16a\LL
.	16ggJJ 16ee\
8C#/	8ggL 8ee\
8AA/J	16ff#L 16dd\
.	16eeJJ 16cc#\
=10	=10
!LO:TX:t=P:problem:mixed beam	!
8D/L	16.ff#\LL
.	32dd\JJk
8d 8A 8F#\	16.ff#\LL
.	32aa\JJk
8dJ 8A 8F#\	16.bb\LL
.	32aa\JJk
=11	=11
8AL 8AA\	16cc#LL 16a 16g 16e/
.	16cc#JJ 16a 16g 16e/
8B-X 8BB-X\	8cc#L 8a 8g 8e/
8AJ 8AA\	8cc#J 8a 8g 8e/
=12	=12
8D\L	16dd\LL
.	16ddd\
8d 8A 8F#\	16ccc#\
.	16ddd\
8dJ 8A 8F#\	16aa\
.	16ff#\JJ
=13	=13
.	8qff#/
!LO:TX:t=P:problem:mixed beam	!
8AA/L	16.ee\LL
.	32dd#X\K
8e 8c# 8A\	16.ee\
.	32ff#\K
8eJ 8c# 8A\	16.gg\
.	32ee\JJk
=14	=14
8D\L	16.ff#\LL
.	32aa\JJk
8d 8A 8F#\	16gg#X\LL
.	16aa\
8dJ 8A 8F#\	16ff#\
.	16dd\JJ
!LO:LB:g=original	!LO:LB:g=original
=15	=15
!LO:N:vis=4	!
8A 8AA/	16cc#LL 16a 16g 16e/
.	16cc#JJ 16a 16g 16e/
!LO:N:vis=4	!
8G 8GG/	8cc#L 8a 8g 8e/
!LO:N:vis=4	!
8E 8EE/	8cc#J 8a 8g 8e/
=16	=16
4.D 4.DD/	8dd 8a 8f#/
.	4ddd 4aa 4ff# 4dd\
=17||	=17||
*	*k[cnf#]
*	*G:
!LO:TX:a:t=P:problem:brak znaków przykluczowych	!
8G\L	8.ddd\L
8d 8B\	.
.	16ccc#X\L
8dJ 8B\	16ddd\
.	16bb\JJ
=18	=18
*rep	*
8G\L	16gg\LL
.	16bb\
8d 8B\	16dd\
.	16gg\
8dJ 8B\	16bb\
.	16gg\JJ
*Xrep	*
=19	=19
8D\L	16ff#\LL
.	16ccc\
!LO:SIC:v:n=2:s=8c	!
8d 8c# 8A\	16bb\
.	16aa\
8dJ 8B 8A\	16gg\
.	16ff#\JJ
=20	=20
8G\L	16aa\LL
.	16gg\
8d 8B\	16ff#\
.	16ee\J
8dJ 8B\	8dd\J
=21	=21
*rep	*
.	8qdd/
8G\L	8.ddd\L
8d 8B\	.
.	16ccc#X\L
8dJ 8B\	16ddd\
.	16bb\JJ
*Xrep	*
!LO:LB:g=original	!LO:LB:g=original
=22	=22
*rep	*
8G\L	16gg\LL
.	16bb\
8d 8B\	16dd\
.	16gg\
8dJ 8B\	16bb\
.	16gg\JJ
*Xrep	*
=23	=23
8D\L	16dd\LL
.	16ccc\JJ
!LO:SIC:v:n=2:s=8c	!
8d 8c# 8A\	16aa\LL
.	16ff#\
!LO:SIC:v:n=2:s=8c	!
8dJ 8c# 8A\	16dd\
.	16ff#\JJ
=24	=24
8G\L	16ff#\LL
.	16gg\JJ
8dJ 8B\	4g/
8r	.
==	==
*-	*-
!!!system-decoration: (s1,s2)
!!!ENC: Marta Lawrence
!!!END: 2020-11-23
!!!ENC: Mateusz Solarz
!!!END: 2020-06-15
